X:7647
T:Trava Trava
O:england
C:Greece
M:C
L:1/8
K:C
R:Hasapikos
[| "G"^cd dd B2 G2 \
| ^cd dd B2 G2 \
| ^cd dc "D7"Bc BA \
| "G"G2 GA Bc d2 \
| "G"^cd dd B2 G2 |
| ^cd dd B2 G2 \
| de dc "D7"Bc BA \
| "G".G2 "D7".D2 "G".G2 z2 || \
| "G"d^c de fe d^c \
| d^c de fe d^c |
| d^c de fe d^c \
| ^c4 d4 \
|  "G"d^c de fe d^c \
| d^c de fe "Coda"df  \
| "D7"fe dB cB AB |
| "G".G2 "D7".D2 "G".G2 z2 || \
| "G"^A2 B2 A2 B2 \
| ^c2 d6 \
| e2 f2 e2 d2 \
| c2 B6 \
| e2 f2 e2 d2 \
| ^c2 d6 \
| g2 f2 e2 d2 \
| c2 B6 ||
| e2 f2 e2 d2 \
| ^ce d3 def \
| g2 f2 e2 d2 \
| c2 B3 cde \
| "G7"(f8 \
| f6) gf \
| "C"(e8 \
| e8) \
| "G"(d8 \
| d8) |]
P: Coda
| "D7"d2 dd e2 f2 \
| "G".g2 "D7".d2 "G".g4 |]


